src/assets/Check.svg

<svg width="30" height="30" viewBox="0 0 30 30" fill="none" xmlns="http://www.w3.org/2000/svg">
<path d="M21.25 4.17487C23.1353 5.26343 24.7037 6.82552 25.7998 8.70649C26.8959 10.5875 27.4817 12.7221 27.4993 14.899C27.5169 17.076 26.9656 19.2198 25.9 21.1182C24.8345 23.0167 23.2916 24.6039 21.4241 25.7228C19.5566 26.8416 17.4292 27.4534 15.2526 27.4974C13.076 27.5415 10.9257 27.0163 9.01444 25.9739C7.1032 24.9315 5.49734 23.408 4.35583 21.5543C3.21433 19.7005 2.57676 17.5808 2.50625 15.4049L2.5 14.9999L2.50625 14.5949C2.57625 12.4361 3.20443 10.3323 4.32955 8.48861C5.45466 6.6449 7.03832 5.12418 8.92612 4.07472C10.8139 3.02526 12.9414 2.48286 15.1013 2.50041C17.2611 2.51796 19.3795 3.09486 21.25 4.17487ZM19.6337 11.6161C19.4185 11.4009 19.1321 11.2716 18.8284 11.2525C18.5246 11.2334 18.2243 11.3258 17.9838 11.5124L17.8663 11.6161L13.75 15.7311L12.1337 14.1161L12.0162 14.0124C11.7757 13.8259 11.4755 13.7336 11.1718 13.7528C10.868 13.772 10.5818 13.9013 10.3666 14.1164C10.1514 14.3316 10.0221 14.6179 10.0029 14.9216C9.98378 15.2253 10.0761 15.5256 10.2625 15.7661L10.3663 15.8836L12.8663 18.3836L12.9838 18.4874C13.203 18.6574 13.4725 18.7498 13.75 18.7498C14.0275 18.7498 14.297 18.6574 14.5162 18.4874L14.6337 18.3836L19.6337 13.3836L19.7375 13.2661C19.9241 13.0256 20.0165 12.7253 19.9974 12.4215C19.9783 12.1177 19.849 11.8314 19.6337 11.6161Z" fill="#21830F"/>
</svg>

<svg xmlns="http://www.w3.org/2000/svg" width="30" height="30" fill="none" viewBox="0 0 30 30"><path fill="#21830f" d="M21.25 4.175a12.5 12.5 0 1 1-18.744 11.23L2.5 15l.006-.405A12.5 12.5 0 0 1 21.25 4.175m-1.616 7.441a1.25 1.25 0 0 0-1.65-.104l-.118.104-4.116 4.115-1.616-1.615-.118-.104a1.25 1.25 0 0 0-1.754 1.754l.104.118 2.5 2.5.118.103a1.25 1.25 0 0 0 1.532 0l.118-.103 5-5 .104-.118a1.25 1.25 0 0 0-.104-1.65"/></svg>
